src/lib/packages/icons/src/assets/line/user-minus-bottom.svg

<svg xmlns="http://www.w3.org/2000/svg" width="24" height="24" fill="none"><path fill="currentColor" d="M11.009 10.75a4.255 4.255 0 0 0 4.25-4.25 4.255 4.255 0 0 0-4.25-4.25 4.255 4.255 0 0 0-4.25 4.25 4.255 4.255 0 0 0 4.25 4.25Zm0-7a2.752 2.752 0 0 1 2.75 2.75 2.752 2.752 0 0 1-2.75 2.75 2.752 2.752 0 0 1-2.75-2.75 2.752 2.752 0 0 1 2.75-2.75ZM4.75 18.02c0 1.563.673 2.23 2.25 2.23h7a.75.75 0 0 1 0 1.5H7c-2.418 0-3.75-1.325-3.75-3.73 0-2.662 1.506-5.77 5.75-5.77h4c3.568 0 4.894 2.189 5.365 3.495a.75.75 0 0 1-1.41.51c-.602-1.662-1.932-2.505-3.955-2.505H9c-3.943 0-4.25 3.269-4.25 4.27Zm17 .98a.75.75 0 0 1-.75.75h-4a.75.75 0 0 1 0-1.5h4a.75.75 0 0 1 .75.75Z"/></svg>

<svg width="24" height="24" viewBox="0 0 24 24" fill="none" xmlns="http://www.w3.org/2000/svg">
<path d="M11.009 10.75C13.353 10.75 15.259 8.843 15.259 6.5C15.259 4.157 13.353 2.25 11.009 2.25C8.66503 2.25 6.75903 4.157 6.75903 6.5C6.75903 8.843 8.66503 10.75 11.009 10.75ZM11.009 3.75C12.526 3.75 13.759 4.983 13.759 6.5C13.759 8.017 12.526 9.25 11.009 9.25C9.49203 9.25 8.25903 8.017 8.25903 6.5C8.25903 4.983 9.49203 3.75 11.009 3.75ZM4.75 18.02C4.75 19.583 5.423 20.25 7 20.25H14C14.414 20.25 14.75 20.586 14.75 21C14.75 21.414 14.414 21.75 14 21.75H7C4.582 21.75 3.25 20.425 3.25 18.02C3.25 15.358 4.756 12.25 9 12.25H13C16.568 12.25 17.894 14.439 18.365 15.745C18.506 16.134 18.304 16.564 17.915 16.705C17.528 16.848 17.097 16.645 16.955 16.255C16.353 14.593 15.023 13.75 13 13.75H9C5.057 13.75 4.75 17.019 4.75 18.02ZM21.75 19C21.75 19.414 21.414 19.75 21 19.75H17C16.586 19.75 16.25 19.414 16.25 19C16.25 18.586 16.586 18.25 17 18.25H21C21.414 18.25 21.75 18.586 21.75 19Z" fill="currentColor"/>
</svg>
